X: 14
T: Curlews, The
C: Josephine Keegan
Z: Jeremy
S: https://thesession.org/tunes/174#setting49668
R: reel
M: 4/4
L: 1/8
K: Bmin
|:fBB2 Bcde|fece a3e|faed cAA2|EAce a2ba|
fBB2 Bcde|fece a3f|g3e f3e|dBcA FBB2:|
|:Bdcd BFF2|DFF2 Bcdf|ecBc AEE2|CEAB cedc|
Bdcd BFF2|DFF2 Bcdf|ecBA fcec|dcBA FBB2:|

